X:45
T:SAKURA
N:Theme and variations on a traditional Japanese Koto piece.
N:Arranged for classical guitar by Yukihiro Yocoh, and 
N:transcribed into abc by Kunio Matsumoto.
N:This is the largest and most complex pieces of single-voice
N:abc I've seen.  Chord notes in mixed order.
C:Trad arr. Yocoh.
M:4/4
Q:200 %5m19s playing time.
K:Am
P:Intro
[A2d2e2a2][A2d2e2a2][A2-e2-a2-b2-(E2][A2e2a2b2E,2)]|\
[A2d2e2a2][A2d2e2a2][A2-e2-a2-b2-(E2][A2e2a2b2E,2)]|
[(A(B(e]E,F,E,[A)B)e)A,2](B,3|[B,)(A(B(f]A,B,D[A2)B2)f2)E2]E,2|\
[ABf]A,A,[ABe][ABf][A,da][Bda]A,|[ABe]E,E,[FAc][A2c2e2]E2|
E,A,B,DEABd|e2a2b2d'2|[a2e'2][b2e'2][c'2e'2][b2e'2]|[a2e'2][be'][ae'][a2f'2][a2f'2]|
e'(c'b)af2(ab)|e(cB)AF2(AB)|ECB,A,F,4|E,A,B,DEABd|e2a2b2d'2|[e8a8e'8]|[E8A8B8e8]||
P:Theme
[A2d2e2a2][A2d2e2a2][A2e2-a2-b2-(E2][a2e2a2b2E,2)]|\
[A2d2e2a2][A2d2e2a2][A2e2-a2-b2-(E2][a2e2a2b2E,2)]|
|:(aAb)dc'abd|aA(ba)[Af]A(BA)|eEcAeBfA|e(Eec[E)B]EFE:|
aAadb(ef)e|aAadb(ef)e|f(DE)FAB(ba)|f4{b/a/}F4|[E4A4B4e4]E,4||
P:V1
a/e/f/e/d/B/A/B/(b/e/)f/e/d/B/E/B/|(a/e/)f/e/d/B/A/B/(b/e/)f/e/d/B/E/B/|
|:(a/e/)f/e/(b/e/)d/B/(c'/e/)f/e/(b/e/)d/B/|(a/e/)f/e/b/d/a/d/f/e/d/e/B/e/A/B/|
e/E/A/B/c/F/A/c/e/E/A/B/f/E/A/B/|e/E/A/B/e/F/c/A/B/E/A/B/d/B/f/e/:|
(a/e/)f/e/d/B/A/B/(b/e/)f/e/d/B/E/e/|f/(A,/B,/)D/E/A/B/d/f/e/(b/a/)f/e/d/B/|
A/B/d/B/d/e/f/e/f/a/(b/a/)b{d'}d'|[e2a2e'2][e2a2e'2][e2a2e'2][e2a2e'2]|[e2a2e'2][e2a2e'2][f4b4d'4]||
P:V2
A,[B/c/][B/c/][Cce][B/c/][B/c/][DB][F/A/]A/[E2A2B2]|\
A,/[B/c/][B/c/][B/c/][C/c/e/][c/e/][B/c/][B/c/][D/B/]B/[F/A/]A/[E2A2B2]|
|:A,[F/A/]B/[EBc]e [Ddf]e/e/[Cea]b|A,[a/e']f'/[be'][a/c'/]c'/[Dab][E/e/a/][e/a/][FBf](A/B/)|
c/e/f/e/B/e/f/e/A/e/f/e/F/e/f/e/|A/e/f/e/F/e/A/e/B/e/f/e/C/e/B,/e/:|
A,/[B/c/][B/c/][B/c/][C/c/e/][c/e/][B/c/][B/c/][D/B/]B/[F/A/]A/[E2A2B2]|
A,[B/c/][B/c/][Cce][B/c/][B/c/][DB][F/A/]A/[E2A2B2]|[E/a/b/]A/[B/f/a/]d/[eab]E,A,ABd|\
{(A/(d/(^f/(e/}[A,8A8)d8)^f8)e8)]||
P:V3
A,/e/e/e/E/e/e/e/F/e/e/e/D/e/e/e/|A,/f/e/f/E/f/e/f/F/f/e/f/A/f/e/f/|
E,/^g/e/g/B/g/e/g/c/g/e/g/B/g/e/g/|A,/a/e/a/A/a/e/a/F/a/e/a/D/a/e/a/|
A,/e/e/e/E/e/e/e/F/e/e/e/D/e/e/e/|A,/f/e/f/E/f/e/f/F/f/e/f/A/f/e/f/|
E,/^g/e/g/B/g/e/g/c/g/e/g/B/g/e/g/|A,/a/e/a/c/a/(e/(a/[e2)a2)A2]z2|
E,/^g/e/g/B/g/e/g/A/g/e/g/B/g/e/g/|A,/f/e/f/A/f/e/f/F/f/e/f/D/f/e/f/|
A,/e/e/e/E/e/e/e/F/e/e/e/D/e/e/e/|A,/f/e/f/E/f/e/f/F/f/e/f/A/f/e/f/|
E,/^g/e/g/B/g/e/g/c/g/e/g/B/g/e/g/|A,/a/e/a/c/a/(e/(a/[e2)a2)A2]z2||
P:V4
A/a/a/A/a/a/A/e/B/e/e/c/e/e/B/e/|A/a/a/A/a/a/A/e/B/e/e/c/e/e/B/e/|
|:A,/a/a/A/a/a/B,/e/C/e/e/A/e/e/E/e/|F/a/a/B/a/a/A/e/D/f/f/B/f/f/A/e/|
E/e/e/C/e/e/A,/e/D/f/f/F/f/f/D/f/|E/e/e/C/e/e/A,/e/E,/e/e/C/e/e/B,/e/:|
A,/a/a/A/a/a/A/e/B/e/e/c/e/e/B/e/|A/a/a/A/a/a/A/e/B/e/e/c/e/e/B/e/|
C/a/a/E/a/a/F/e/A/e/e/B/e/e/A/e/|F/a/a/A/a/a/D/a/F/a/a/A/a/a/z|
F/a/a/A/a/a/B/a/z3/A/a/a/B/a/|z3Ba[d'2e''2]z||
P:V5
EABce4|EABcf4|ecBABAE2|ecBAF4|A,EB,ECEB,E|
A,EB,DE4|ecBABAE2|ecBAF4|A,EB,ECEB,E|A,EB,DE4|
ecBABAE2|ecBAF4|E,A,B,D[A,E]A[A,B]d|[B,8e8-]|[E,8e8]||
P:V6
A,//e//e//e//a//e//e//e//A,//a//a//a//c//a//a//a// \
E,//b//b//b//E//b//b//b//A//b//b//b//E//b//b//b//|
A,//c'//c'//c'//A//c'//c'//c'//A,//d'//d'//d'//A//d'//d'//d'// \
E,//b//b//b//E//b//b//b//A//b//b//b//E//b//b//b//:|
A,//a//a//a//A//a//a//a//A,//b//b//b//A//b//b//b// \
A,//c'//c'//c'//A//c'//c'//c'//A,//e'//e'//e'//c//e'//e'//e'//|
D//f'//f'//f'//f//f'//f'//f'//a//f'//f'//f'//f//f'//f'//f'// \
b//f'//f'//f'//f//f'//f'//f'//a//f'//f'//f'//f//f'//f'//f'//|
A,//e'//e'//e'//c//e'//e'//e'//A,//c'//c'//c'//A//c'//c'//c'// \
D//b//b//b//d//b//b//b//D//a//a//a//d//a//a//a//|
D//f//f//f//A//f//f//f//B//f//f//f//A//f//f//f// \
B//f//f//f//A//f//f//f//F//f//f//f//A//f//f//f//|
E//e//e//e//A//e//e//e//C//e//e//e//A//e//e//e// \
B,//e//e//e//A//e//e//e//A,//e//e//e//A//e//e//e//|
F,//f'//f'//f'//A//f'//f'//f'//B//f'//f'//f'//A//f'//f'//f'// \
B//f'//f'//f'//A//f'//f'//f'//F//f'//f'//f'//A//f'//f'//f'//| \
A,//e//e//e//A//e//e//e//A,//a//a//a//A//a//a//a// \
E,//b//b//b//E//b//b//b//A//b//b//b//E//b//b//b//|
A,//c'//c'//c'//A//c'//c'//c'//A,//a//a//a//A//a//a//a// \
E,//b//b//b//E//b//b//b//A//b//b//b//E//e//e//e//|
D//f//f//f//E//f//f//f//F//f//f//f//A//f//f//f// \
B//f//f//f//A//f//f//f//f//b//b//b//d//a//a//a//|
B//f//f//f//A//f//f//f//F//f//f//f//D//f//f//f// \
F//f//f//f//A//f//f//f//B//f//f//f//d//f//f//f//|
e//e//e//e//B//e//e//e//A//e//e//e//F//e//e//e//[E4A4B4e4]||
P:Coda
[ABf]A,A,[ABe][ABf][A,da][Bda]A,|E,A,B,DEABd|e2a2b2d'2|\
[a2e'2][b2e'2][c'2e'2][b2e'2]|[a2e'2][be'][ae'][a2f'2][a2f'2]|
e'(c'b)af2(ab)|e(cB)AF2(AB)|ECB,A,F,4|E,A,B,DEABd|e2a2b2d'2|\
[e4a4e'4][F4A4B4e4]|E8||
